libs/icons/src/svg/screen-share-off.svg

<svg width="16" height="16" viewBox="0 0 16 16" fill="none" xmlns="http://www.w3.org/2000/svg">
<g clip-path="url(#clip0_3_3783)">
<path fill-rule="evenodd" clip-rule="evenodd" d="M4.66667 2.00001H2.27614L5.80474 5.5286C6.06509 5.78895 6.06509 6.21106 5.80474 6.47141C5.54439 6.73176 5.12228 6.73176 4.86193 6.47141L1.33333 2.94281V5.33334C1.33333 5.70153 1.03486 6 0.666667 6C0.298477 6 0 5.70153 0 5.33334V1.33334C0 1.24295 0.0179904 1.15675 0.0505859 1.07815C0.0828791 1.0001 0.130634 0.926939 0.19385 0.86335L0.196678 0.860522C0.317207 0.740709 0.483291 0.666672 0.666667 0.666672H0.666782H4.66667C5.03486 0.666672 5.33333 0.965149 5.33333 1.33334C5.33333 1.70153 5.03486 2.00001 4.66667 2.00001ZM12 14H4.66667C4.29848 14 4 14.2985 4 14.6667C4 15.0349 4.29848 15.3333 4.66667 15.3333H12C12.3682 15.3333 12.6667 15.0349 12.6667 14.6667C12.6667 14.2985 12.3682 14 12 14ZM16 4C16 3.63182 15.7015 3.33334 15.3333 3.33334C14.9651 3.33334 14.6667 3.63182 14.6667 4V11.3333H7.33333C6.96514 11.3333 6.66667 11.6318 6.66667 12C6.66667 12.3682 6.96514 12.6667 7.33333 12.6667H15.3333C15.7015 12.6667 16 12.3682 16 12V4ZM0.666667 7.33334C1.03486 7.33334 1.33333 7.63181 1.33333 8V11.3333H3.72386L13.0572 2.00001H7.33333C6.96514 2.00001 6.66667 1.70153 6.66667 1.33334C6.66667 0.965149 6.96514 0.666672 7.33333 0.666672H14.6667C14.9363 0.666672 15.1794 0.8291 15.2826 1.07822C15.3858 1.32733 15.3287 1.61408 15.1381 1.80474L1.80474 15.1381C1.54439 15.3984 1.12228 15.3984 0.861929 15.1381C0.601579 14.8777 0.601579 14.4556 0.861929 14.1953L2.39052 12.6667H0.666667C0.298477 12.6667 0 12.3682 0 12V8C0 7.63181 0.298477 7.33334 0.666667 7.33334Z" fill="#202327"/>
</g>
<defs>
<clipPath id="clip0_3_3783">
<rect width="16" height="16" fill="white"/>
</clipPath>
</defs>
</svg>

<svg xmlns="http://www.w3.org/2000/svg" viewBox="0 0 16 16" class="sageicon"><path fill-rule="evenodd" d="M4.667 2h-2.39l3.528 3.529a.667.667 0 1 1-.943.942L1.333 2.943v2.39a.667.667 0 1 1-1.333 0v-4a.665.665 0 0 1 .194-.47L.197.861a.665.665 0 0 1 .47-.194h4a.667.667 0 0 1 0 1.333ZM12 14H4.667a.667.667 0 0 0 0 1.333H12A.667.667 0 1 0 12 14Zm4-10a.667.667 0 0 0-1.333 0v7.333H7.333a.667.667 0 0 0 0 1.334h8A.667.667 0 0 0 16 12V4ZM.667 7.333c.368 0 .666.299.666.667v3.333h2.39L13.058 2H7.333a.667.667 0 0 1 0-1.333h7.334a.667.667 0 0 1 .471 1.138L1.805 15.138a.667.667 0 0 1-.943-.943l1.529-1.528H.667A.667.667 0 0 1 0 12V8c0-.368.298-.667.667-.667Z"/></svg>
